X:1
T:The glass was just timed
T:Henry Purcell
%%score [ 1 2 3 ]
L:1/8
Q:1/4=70
M:3/4
K:G
V:1 treble nm="I"
V:2 treble nm="II"
V:3 treble nm="III"
V:1
|: G2 | B3 c A2 | B3 c d2 | e3 d c2 | A4 A A | A3 B c2 | d3 e c2 | B3 c A2 | G4 :| %9
w: The|glass was just|tim'd to the|cri- ti- cal|hour When we|heard the re-|port of the|guns of the|Tower;|
V:2
|: z2 | G3 A F2 | G3 A B2 | c3 B A2 | F4 F2 | F3 G A2 | A2 D2 G G | G3 A F2 | G4 :| %9
w: |Thanks to kind|heav'n who the|bless- ing con-|triv'd, No|soon- er we|drank it, but our|Mon- arch ar-|riv'd|
V:3
|: G2 | E2 C2 D2 | B,2 G,2 G G | C3 D (EC) | D4 D2 | C3 B, A,2 | B,2 B,2 C2 | D3 E D2 | G,4 :| %9
w: The|theme lets con-|tin- ue and our|bum- pers ad- *|vance: Suc-|cess to old|Eng- land, con-|fu- sion to|France!|

